resources/transaction_withdrawal.svg

<svg width="44" height="44" viewBox="0 0 44 44" fill="none" xmlns="http://www.w3.org/2000/svg">
    <g filter="url(#filter0_d)">
        <path d="M22 44C34.1503 44 44 34.1503 44 22C44 9.84974 34.1503 0 22 0C9.84974 0 0 9.84974 0 22C0 34.1503 9.84974 44 22 44Z" fill="#F5F7FA"/>
    </g>
    <path d="M22 32C27.5228 32 32 27.5228 32 22C32 16.4772 27.5228 12 22 12C16.4772 12 12 16.4772 12 22C12 27.5228 16.4772 32 22 32Z" stroke="#BCBEC3" stroke-linecap="round" stroke-linejoin="round"/>
    <path fill-rule="evenodd" clip-rule="evenodd" d="M21.4999 19.7645L21.5 26.4999C21.5 26.7761 21.7238 26.9999 22 26.9999C22.2761 26.9999 22.5 26.7761 22.5 26.4999L22.4999 19.7645L25.2811 22.6392C25.4809 22.8457 25.8119 22.8457 26.0116 22.6392C26.2022 22.4422 26.2022 22.1295 26.0116 21.9325L22.3535 18.1513C22.1582 17.9495 21.8416 17.9495 21.6464 18.1513L17.9882 21.9325C17.7976 22.1295 17.7976 22.4422 17.9882 22.6392C18.188 22.8457 18.519 22.8457 18.7187 22.6392L21.4999 19.7645Z" fill="#BCBEC3"/>
    <defs>
        <filter id="filter0_d" x="-8" y="-1" width="60" height="60" filterUnits="userSpaceOnUse" color-interpolation-filters="sRGB">
            <feFlood flood-opacity="0" result="BackgroundImageFix"/>
            <feColorMatrix in="SourceAlpha" type="matrix" values="0 0 0 0 0 0 0 0 0 0 0 0 0 0 0 0 0 0 127 0"/>
            <feOffset dy="7"/>
            <feGaussianBlur stdDeviation="4"/>
            <feColorMatrix type="matrix" values="0 0 0 0 0.961984 0 0 0 0 0.966827 0 0 0 0 0.978578 0 0 0 0.138247 0"/>
            <feBlend mode="normal" in2="BackgroundImageFix" result="effect1_dropShadow"/>
            <feBlend mode="normal" in="SourceGraphic" in2="effect1_dropShadow" result="shape"/>
        </filter>
    </defs>
</svg>

<svg width="44" height="44" fill="none" xmlns="http://www.w3.org/2000/svg"><g filter="url(#a)"><path d="M22 44c12.15 0 22-9.85 22-22S34.15 0 22 0 0 9.85 0 22s9.85 22 22 22z" fill="#F5F7FA"/></g><path d="M22 32c5.523 0 10-4.477 10-10s-4.477-10-10-10-10 4.477-10 10 4.477 10 10 10z" stroke="#BCBEC3" stroke-linecap="round" stroke-linejoin="round"/><path fill-rule="evenodd" clip-rule="evenodd" d="M21.5 19.765V26.5a.5.5 0 1 0 1 0v-6.735l2.781 2.874a.508.508 0 1 0 .73-.706l-3.657-3.782a.489.489 0 0 0-.708 0l-3.658 3.782a.508.508 0 1 0 .73.706l2.782-2.874z" fill="#BCBEC3"/><defs><filter id="a" x="-8" y="-1" width="60" height="60" filterUnits="userSpaceOnUse" color-interpolation-filters="sRGB"><feFlood flood-opacity="0" result="BackgroundImageFix"/><feColorMatrix in="SourceAlpha" values="0 0 0 0 0 0 0 0 0 0 0 0 0 0 0 0 0 0 127 0"/><feOffset dy="7"/><feGaussianBlur stdDeviation="4"/><feColorMatrix values="0 0 0 0 0.961984 0 0 0 0 0.966827 0 0 0 0 0.978578 0 0 0 0.138247 0"/><feBlend in2="BackgroundImageFix" result="effect1_dropShadow"/><feBlend in="SourceGraphic" in2="effect1_dropShadow" result="shape"/></filter></defs></svg>
